X:1
T:A Down Home Shout
T:Characteristic Slow-Drag & Two Step
T:Herman Carle
T:Copyright, 1907, by Victoria Music Co.
T:Copyright, 1907, by Victoria Music Co.
T:Copyright, 1907, by Victoria Music Co.
Z:Copyright, 1907, by Victoria Music Co.
%%score { ( 1 3 ) | 2 }
L:1/8
Q:1/4=120
M:4/4
K:C
V:1 treble nm="Piano" snm="Pno."
V:3 treble 
V:2 bass 
V:1
"^Slow"!f! [B,FG] [B,FG]2 [B,FG]- [B,FG][B,FG] [B,FG]2 | [CFA] [CFA]2 [CFA]- [CFA][CFA] [CFA]2 | %2
 [^CG^A] [CGA]2 [CGA]- [CGA][CGA] [CGA]2 | [DFB]2 z2 [B,FG]2 z2 |: %4
!f! [CGc][DGd][^DG^d][EGe]- [EGe][=DG=d][CGc][Aea] | [Geg] [cec']2 [Aea]- [Aea][Geg] [Ece]2 | %6
 [Geg][^Fe^f][Gceg][Acea]- ([Acea]ece) | [Aea]2 [cec']2 [B^fb]2 [Afa]2 | %8
 [B=fb][^Af^a][Bfb][dfd']- [dfd'][Bfb][=Af=a][Gfg] | [Afa] [Bfb]2 [Afa]- [Afa][Gfg] [DBd]2 | %10
 [GBg][^FB^f][GBg][Aa]- ([Aa]=fdf) | [Afa]2 [Bfb]2 [Afa]2 [Gfg]2 | %12
 [CGc][DGd][^DG^d][EGe]- [EGe][=DG=d][CGc][Aea] | [Geg] [cec']2 [Aea]- [Aea][Geg] [Ece]2 | %14
 [Geg][^F^d^f][Geg][Aea]- [Aea](ece) | [Aca]2 [cec']2 [Bgb]2 [cga]2 | %16
 [Bgb][^Ag^a][Bgb][dbd']- [dbd'][Bgb] [GBg]2 | [E^ce][^Fc^f][Gcg][A=ca]- [Aca][Fcf] [Dcd]2 | %18
 [GBg]2 z2 z4 |1 z8 :|2 [B,FG]2 [Gg][Aa] [Bb][cc'][dd'][ee'] |: [ff'][dd'][Bb][Aa]- [Aa]4- | %22
 [Adfa]2 [Gg][Aa] [Bb][cc'][dd'][^d^d'] | [ee'][cc'][Bb][Aa]- [Aa]4- | %24
 [Aa]2 x2 [Bb][^d^f][Aa][df] | [c=fc'][Bfb][^Af^a][Bfb]- [Bfb]([Afa][Bb]f) | %26
 [Bfb][Afa][^Gf^g][Afa]- [Afa]([Gg][Aa]f) | [Aea] [Geg]2 [Geg] [A^da]2 [cdc']2 | %28
 [Geg]2 [Gg][Aa] [Bb][cc'][dd'][ee'] | [ff'][dd'][Bb][Aa]- [Aa]4- | %30
 [Adfa]2 [Gg][Aa] [Bb][cc'][dd'][^d^d'] | [ee'][cc'][Bb][Aa]- [Aa]4- | %32
 [Aa]2 [Gceg]2 [A^cea]2 [Gceg]2 | [^F=c^f][Aa][cc'][ee']- [ee'][ac'] [dfd']2 | %34
 [=FB=f][Gg][Bb][ee']- [ee'][gb] [dfd']2 | [cec']8 |1 [cec']2 [Gg][Aa] [Bb][cc'][dd'][ee'] :|2 %37
 [EGc]2 z2 [cec']2 z2 |:[K:F]!mp! [FA]2 [Ac]2 d f2 d | (e^dea-) a2 g2 | ffg^g [fa] [eae']2 [cac'] | %41
 [dad'] [eae']2 [dad']- [dad'](c'af) | e [ebd']2 [ebd']- [ebd']4- | [ebd'](c'bg) [Bd]2 [Be]2 | %44
 f d2 d- (dc'af) | e g2 e d2 c2 | [FA]2 [Ac]2 d f2 d | (e^dea-) a2 g2 | ffg^g [fa] [eae']2 [cac'] | %49
 [dad'] [eae']2 [dad']- ([dad']c'af) | [ce] [ceg]2 [ceg]- [ceg-]4 | g a2 =b a2 g2 | %52
 [cec']2 [=B=b][c^d^fc']- [cdfc'][Bb][cdfc'][Bb] |1 [cegc']2 z2 z4 :|2 [cegc']2 (=Bc ^cd^de) |: %55
"^2nd time 8va"!f! [FBdf] [FBdf]2 [DFBd]- [DFBd]4- | [DFBd] [FBdf]2 [DFBd] [FBdf]2 [DFBd]2 | %57
 [FAcf] [FAcf]2 [DFAd]- [D-FAd-]4 | [Dd] [c^fac']2 [dfad'] [cfac']2 [Acfa]2 | %59
 [=Bfa] [Bfa]2 [Bfg]- ([Bfg]4 | [_Bcg]) [Bea]2 [Beg] [Bcf]2 [GBce]2 | d2 ef- (fedf) | %62
 [E_Be] [GBg]2 [EBe] [DBd]2 [CBc]2 |"^2nd time 8va" [FBdf] [FBdf]2 [DFBd]- [DFBd]4- | %64
 [DFBd] [FBdf]2 [DFBd] [FBdf]2 [DFBd]2 | [FAcf] [FAcf]2 [DFAd]- [D-FAd-]4 | %66
 [Dd] [c^fac']2 [dfad'] [cfac']2 [Acfa]2 | [=Bfa] [Bfa]2 [Bfg]- ([Bfg]4 | %68
 [_Bcg]) [Bea]2 [Beg] [GBe]2 [EGc]2 |1 [FAcf]8- | [FAcf]2 (=Bc ^cd^de) :|2 [FAcf]8- | %72
 [FAcf]2 z2 [FAcf]2 !fermata!z2 |] %73
V:2
 [G,,G,] [G,,G,]2 [G,,G,]- [G,,G,][G,,G,] [G,,G,]2 | %1
 [G,,G,] [G,,G,]2 [G,,G,]- [G,,G,][G,,G,] [G,,G,]2 | %2
 [G,,G,] [G,,G,]2 [G,,G,]- [G,,G,][G,,G,] [G,,G,]2 | [G,,G,]2 z2 [G,,G,]2 z2 |: %4
 [C,,C,]2 [E,G,C]2 [G,,,G,,]2 [E,G,]2 | [C,,C,]2 [E,G,C]2 [G,,,G,,]2 [E,G,C]2 | %6
 [C,,C,]2 [E,G,C]2 [G,,,G,,]2 [E,G,C]2 | [E,,E,]2 [E,G,C]2 [_E,,_E,]2 [^F,A,C]2 | %8
 [D,,D,]2 [=F,G,B,]2 [G,,,G,,]2 [F,G,B,]2 | [D,,D,]2 [F,G,B,]2 [G,,,G,,]2 [F,G,B,]2 | %10
 [D,,D,]2 [F,G,B,]2 [G,,,G,,]2 [F,G,B,]2 | z2 [G,,,G,,]2 [A,,,A,,]2 [B,,,B,,]2 | %12
 [C,,C,]2 [E,G,C]2 [G,,,G,,]2 [E,G,]2 | [C,,C,]2 [E,G,C]2 [G,,,G,,]2 [E,G,C]2 | %14
 [C,,C,]2 [E,G,C]2 [G,,,G,,]2 [E,G,C]2 | [E,,E,]2 [E,G,C]2 [E,,E,]2 [_E,,_E,]2 | %16
 [D,,D,]2 [D,G,B,]2 [E,,E,]2 [E,G,B,]2 | [A,,A,]2 [E,G,A,^C]2 [D,,D,]2 [^F,A,=C]2 | %18
 [G,,G,]2 [G,,G,][^F,,^F,] [G,,G,][F,,F,][G,,G,][F,,F,] |1 %19
 [G,,G,]2 [=F,,=F,]2 [E,,E,]2 [D,,D,]2 :|2 [G,,G,]2 z2 z4 |: %21
 [D,,D,]2 [F,G,B,]2 [G,,,G,,]2 [F,G,B,]2 | [D,,D,]2 [F,G,B,]2 [G,,,G,,]2 [F,G,B,]2 | %23
 [C,,C,]2 [E,G,C]2 [G,,,G,,]2 [E,G,C]2 | [E,,E,]2 [E,G,C]2 [_E,,_E,]2 [^F,A,C]2 | %25
 [D,,D,]2 [=F,G,B,]2 [G,,,G,,]2 [F,G,B,]2 | [D,,D,]2 [F,G,B,]2 [G,,,G,,]2 [F,G,B,]2 | %27
 [C,,C,]2 [E,G,C]2 [G,,,G,,]2 [^D,^F,A,C]2 | %28
 [C,E,G,C]2 [G,,G,][^F,,^F,] [=F,,=F,][E,,E,][D,,D,][C,,C,] | %29
 [D,,D,]2 [F,G,B,]2 [G,,,G,,]2 [F,G,B,]2 | [D,,D,]2 [F,G,B,]2 [G,,,G,,]2 [F,G,B,]2 | %31
 [C,,C,]2 [E,G,C]2 [G,,,G,,]2 [E,G,C]2 | [C,,C,]2 [E,G,C]2 [A,,,A,,]2 [E,G,A,^C]2 | %33
 [A,,A,]2 [D,^F,A,=C]2 [D,,D,]2 [D,F,A,C]2 | [D,,D,]2 [F,G,B,]2 [G,,,G,,]2 [F,G,B,]2 | %35
 [C,,C,]3 [A,,A,] [G,,G,]2 [E,,E,]2 |1 [C,,C,]2 z2 z4 :|2 [C,,C,]2 z2 [C,,C,]2 z2 |: %38
[K:F] [F,,F,]2 [A,CF]2 A,,2 [A,CF]2 | G,,2 [B,CE]2 C,,2 [B,CE]2 | F,,2 [A,CF]2 C,2 [A,CF]2 | %41
 [F,,F,]2 [A,CF]2 A,,2 [A,CF]2 | G,,2 [B,CE]2 [C,,C,][D,,D,][E,,E,][F,,F,] | %43
 [G,,G,]2 [B,CE]2 C,2 [B,CE]2 | [F,,F,]2 [A,CF]2 A,,2 [A,CF]2 | G,,2 [B,CE]2 C,2 [B,CE]2 | %46
 [F,,F,]2 [A,CF]2 A,,2 [A,CF]2 | G,,2 [B,CE]2 C,,2 [B,CE]2 | F,,2 [A,CF]2 C,2 [A,CF]2 | %49
 [F,,F,]2 [A,CF]2 C,2 [A,CF]2 | G,,2 [G,CE]2 (G,,C,E,G,) | D,2 [G,=B,F]2 G,,2 [G,B,F]2 | %52
 [C,,C,]4 [C,,C,]4 |1 [C,,C,]2 [E,,E,]2 [D,,D,]2 [C,,C,]2 :|2 [C,,C,]2 z2 z4 |: %55
 [B,,,B,,]2 [B,,B,]2 [F,,F,]2 [D,,D,]2 | [B,,,B,,]2 [D,,D,]2 [F,,F,]2 [B,,B,]2 | %57
 [A,,A,]2 [C,,C,]2 [A,,A,]2 [G,,G,]2 | [^F,,^F,]2 [D,,D,]2 [F,,F,]2 [D,,D,]2 | %59
 [D,,D,]2 [G,,,G,,]2 [G,,G,]2 [F,,F,]2 | [E,,E,]2 [D,,D,]2 [C,,C,]2 [B,,,B,,]2 | %61
 [A,,,A,,]4 [_A,,,_A,,]4 | [G,,,G,,]2 [E,G,B,]2 [C,,C,]2 [E,G,B,]2 | %63
 [B,,,B,,]2 [B,,B,]2 [F,,F,]2 [D,,D,]2 | [B,,,B,,]2 [D,,D,]2 [F,,F,]2 [B,,B,]2 | %65
 [A,,A,]2 [C,,C,]2 [A,,A,]2 [G,,G,]2 | [^F,,^F,]2 [D,,D,]2 [F,,F,]2 [D,,D,]2 | %67
 [D,,D,]2 [G,,,G,,]2 [G,,G,]2 [F,,F,]2 | [E,,E,]2 [D,,D,]2 [C,,C,]2 [B,,,B,,]2 |1 %69
 [A,,,A,,]2 [D,,D,]2 [C,,C,]2 [A,,,A,,]2 | [F,,,F,,]2 z2 z4 :|2 %71
 [A,,,A,,]2 [D,,D,]2 [C,,C,]2 [A,,,A,,]2 | [F,,,F,,]2 z2 [F,,,F,,]2 z2 |] %73
V:3
 x8 | x8 | x8 | x8 |: x8 | x8 | x8 | x8 | x8 | x8 | x8 | x8 | x8 | x8 | x8 | x8 | x8 | x8 | x8 |1 %19
 x8 :|2 x8 |: x4 z [df]2 [df]- | x x7 | x4 z ece | (ag[cc']g) x4 | x8 | x8 | x8 | x8 | %29
 x4 z [df]2 [df]- | x x7 | x4 z ece | a2 x6 | x8 | x8 | x8 |1 x8 :|2 x8 |:[K:F] x4 A4 | %39
 B3 [ce]- [ce]2 [Be]2 | A6 x2 | x8 | x8 | x8 | A3 A- A4 | B4 B2 B2 | x4 A4 | B3 [ce]- [ce]2 [Be]2 | %48
 A6 x2 | x8 | x8 | [=Bf]4 [Bf]2 [Bf]2 | x8 |1 x8 :|2 x8 |: x8 | x8 | x8 | x8 | x8 | x8 | %61
 [FAc]3 [F=Bd]- [FBd]4 | x8 | x8 | x8 | x8 | x8 | x8 | x8 |1 x8 | x8 :|2 x8 | x8 |] %73

